;FLAVOR:Marlin
;TIME:6310
;Filament used: 3.75322m
;Layer height: 0.2
;MINX:86.573
;MINY:86.5
;MINZ:0.2
;MAXX:157.031
;MAXY:139.896
;MAXZ:40
;Generated with Cura_SteamEngine 4.9.1
M140 S50
M105
M190 S50
M104 S200
M105
M109 S200
M82 ;absolute extrusion mode
; Ender 3 Custom Start G-code
G92 E0 ; Reset Extruder
G28 ; Home all axes
G1 Z2.0 F3000 ; Move Z Axis up little to prevent scratching of Heat Bed
G1 X0.1 Y20 Z0.3 F5000.0 ; Move to start position
G1 X0.1 Y200.0 Z0.3 F1500.0 E15 ; Draw the first line
G1 X0.4 Y200.0 Z0.3 F5000.0 ; Move to side a little
G1 X0.4 Y20 Z0.3 F1500.0 E30 ; Draw the second line
G92 E0 ; Reset Extruder
G1 Z2.0 F3000 ; Move Z Axis up little to prevent scratching of Heat Bed
G1 X5 Y20 Z0.3 F5000.0 ; Move over to prevent blob squish
G92 E0
G92 E0
G1 F2700 E-5
;LAYER_COUNT:200
;LAYER:0
M107
G0 F6000 X89.767 Y89.768 Z0.2
;TYPE:SKIRT
G1 F2700 E0
G1 F1200 X90.455 Y89.13 E0.03121
G1 X91.195 Y88.554 E0.0624
G1 X91.981 Y88.042 E0.0936
G1 X92.808 Y87.6 E0.12479
G1 X93.669 Y87.229 E0.15597
G1 X94.559 Y86.933 E0.18716
G1 X95.471 Y86.714 E0.21836
G1 X96.398 Y86.574 E0.24954
G1 X97.3 Y86.514 E0.27961
G1 X97.691 Y86.504 E0.29262
G1 X97.972 Y86.5 E0.30196
G1 X145.324 Y86.5 E1.8769
G1 X146.18 Y86.511 E1.90537
G1 X147.116 Y86.565 E1.93655
G1 X148.044 Y86.697 E1.96773
G1 X148.958 Y86.909 E1.99894
G1 X149.85 Y87.198 E2.03012
G1 X150.715 Y87.561 E2.06132
G1 X151.545 Y87.997 E2.09251
G1 X152.336 Y88.502 E2.12372
G1 X153.08 Y89.073 E2.15491
G1 X153.773 Y89.705 E2.18611
G1 X154.41 Y90.393 E2.21729
G1 X154.985 Y91.134 E2.24849
G1 X155.496 Y91.92 E2.27967
G1 X155.938 Y92.748 E2.31089
G1 X156.307 Y93.61 E2.34207
G1 X156.602 Y94.5 E2.37326
G1 X156.82 Y95.412 E2.40445
G1 X156.96 Y96.34 E2.43566
G1 X157.018 Y97.197 E2.46423
G1 X157.027 Y97.513 E2.47475
G1 X157.031 Y97.826 E2.48516
G1 X157.03 Y128.296 E3.49859
G1 X157.021 Y129.023 E3.52278
G1 X156.97 Y129.96 E3.55399
G1 X156.838 Y130.888 E3.58516
G1 X156.629 Y131.802 E3.61635
G1 X156.342 Y132.695 E3.64754
G1 X155.98 Y133.561 E3.67876
G1 X155.546 Y134.392 E3.70994
G1 X155.042 Y135.183 E3.74114
G1 X154.473 Y135.928 E3.77232
G1 X153.842 Y136.623 E3.80354
G1 X153.155 Y137.261 E3.83472
G1 X152.416 Y137.838 E3.86591
G1 X151.63 Y138.35 E3.89711
G1 X150.804 Y138.793 E3.92828
G1 X149.942 Y139.165 E3.95951
G1 X149.053 Y139.461 E3.99067
G1 X148.141 Y139.681 E4.02188
G1 X147.214 Y139.822 E4.05306
G1 X146.344 Y139.882 E4.08207
G1 X146.037 Y139.891 E4.09228
G1 X145.717 Y139.896 E4.10293
G1 X140.593 Y139.896 E4.27335
G1 X139.881 Y139.886 E4.29704
G1 X138.944 Y139.833 E4.32825
G1 X138.016 Y139.7 E4.35943
G1 X137.102 Y139.489 E4.39063
G1 X136.21 Y139.2 E4.42182
G1 X135.345 Y138.837 E4.45302
G1 X134.514 Y138.401 E4.48423
G1 X133.724 Y137.896 E4.51542
G1 X132.979 Y137.326 E4.54661
G1 X132.317 Y136.725 E4.57635
G1 X131.295 Y135.717 E4.6241
G1 X131.202 Y135.623 E4.62849
G1 X129.399 Y133.898 E4.71149
G1 X127.52 Y132.198 E4.79577
G1 X125.607 Y130.565 E4.87942
G1 X123.647 Y128.985 E4.96316
G1 X121.643 Y127.461 E5.04689
G1 X119.612 Y126.005 E5.13001
G1 X117.491 Y124.574 E5.21511
G1 X115.408 Y123.252 E5.29717
G1 X113.193 Y121.932 E5.38293
G1 X111.057 Y120.742 E5.46425
G1 X108.776 Y119.552 E5.54982
G1 X106.529 Y118.46 E5.63291
G1 X104.219 Y117.418 E5.7172
G1 X101.889 Y116.443 E5.80121
G1 X99.571 Y115.554 E5.88378
G1 X97.184 Y114.712 E5.96797
G1 X94.806 Y113.947 E6.05105
G1 X94.345 Y113.805 E6.0671
G1 X93.461 Y113.491 E6.0983
G1 X92.607 Y113.102 E6.12951
G1 X91.79 Y112.643 E6.16068
G1 X91.014 Y112.115 E6.1919
G1 X90.287 Y111.524 E6.22306
G1 X89.612 Y110.872 E6.25427
G1 X88.995 Y110.166 E6.28546
G1 X88.441 Y109.409 E6.31666
G1 X87.953 Y108.608 E6.34785
G1 X87.535 Y107.769 E6.37903
G1 X87.19 Y106.896 E6.41025
G1 X86.921 Y105.998 E6.44143
G1 X86.729 Y105.08 E6.47262
G1 X86.616 Y104.149 E6.50382
G1 X86.588 Y103.631 E6.52107
G1 X86.578 Y103.307 E6.53185
G1 X86.573 Y102.97 E6.54306
G1 X86.573 Y98.047 E6.7068
G1 X86.582 Y97.365 E6.72949
G1 X86.634 Y96.428 E6.7607
G1 X86.766 Y95.5 E6.79187
G1 X86.977 Y94.586 E6.82307
G1 X87.264 Y93.693 E6.85427
G1 X87.627 Y92.828 E6.88547
G1 X88.062 Y91.997 E6.91667
G1 X88.566 Y91.207 E6.94784
G1 X89.136 Y90.462 E6.97904
G1 X89.767 Y89.768 E7.01023
G0 F6000 X90.159 Y89.942
G1 F1200 X90.844 Y89.327 E7.04085
G1 X91.579 Y88.773 E7.07146
G1 X92.36 Y88.285 E7.10209
G1 X93.18 Y87.867 E7.13271
G1 X94.033 Y87.521 E7.16332
G1 X94.914 Y87.251 E7.19397
G1 X95.814 Y87.058 E7.22458
G1 X96.727 Y86.944 E7.25519
G1 X97.31 Y86.913 E7.2746
G1 X97.701 Y86.903 E7.28761
G1 X97.972 Y86.9 E7.29663
G1 X145.324 Y86.9 E8.87156
G1 X146.174 Y86.911 E8.89984
G1 X147.093 Y86.964 E8.93045
G1 X148.004 Y87.097 E8.96107
G1 X148.9 Y87.308 E8.99169
G1 X149.774 Y87.596 E9.0223
G1 X150.621 Y87.959 E9.05295
G1 X151.432 Y88.394 E9.08356
G1 X152.202 Y88.898 E9.11416
G1 X152.926 Y89.467 E9.14479
G1 X153.598 Y90.097 E9.17543
G1 X154.213 Y90.782 E9.20605
G1 X154.766 Y91.518 E9.23667
G1 X155.253 Y92.299 E9.26728
G1 X155.67 Y93.12 E9.2979
G1 X156.015 Y93.974 E9.32854
G1 X156.284 Y94.854 E9.35915
G1 X156.476 Y95.755 E9.38979
G1 X156.589 Y96.668 E9.42038
G1 X156.618 Y97.208 E9.43837
G1 X156.627 Y97.524 E9.44888
G1 X156.631 Y97.826 E9.45893
G1 X156.63 Y128.291 E10.4722
G1 X156.621 Y129.018 E10.49638
G1 X156.57 Y129.937 E10.527
G1 X156.439 Y130.849 E10.55764
G1 X156.229 Y131.745 E10.58825
G1 X155.943 Y132.62 E10.61887
G1 X155.582 Y133.467 E10.64949
G1 X155.148 Y134.279 E10.68011
G1 X154.646 Y135.051 E10.71074
G1 X154.078 Y135.776 E10.74137
G1 X153.45 Y136.449 E10.77199
G1 X152.766 Y137.065 E10.8026
G1 X152.031 Y137.619 E10.83322
G1 X151.251 Y138.108 E10.86384
G1 X150.431 Y138.527 E10.89446
G1 X149.578 Y138.873 E10.92508
G1 X148.698 Y139.144 E10.95571
G1 X147.798 Y139.337 E10.98632
G1 X146.884 Y139.452 E11.01696
G1 X146.333 Y139.482 E11.03531
G1 X146.026 Y139.491 E11.04553
G1 X145.717 Y139.496 E11.05581
G1 X140.598 Y139.496 E11.22607
G1 X139.886 Y139.486 E11.24975
G1 X138.967 Y139.433 E11.28037
G1 X138.056 Y139.301 E11.31098
G1 X137.16 Y139.09 E11.3416
G1 X136.285 Y138.802 E11.37224
G1 X135.439 Y138.439 E11.40286
G1 X134.628 Y138.004 E11.43347
G1 X133.857 Y137.5 E11.4641
G1 X133.133 Y136.932 E11.49471
G1 X132.597 Y136.44 E11.51891
G1 X131.676 Y135.533 E11.5619
G1 X131.499 Y135.354 E11.57027
G1 X129.663 Y133.597 E11.6548
G1 X127.78 Y131.894 E11.73924
G1 X125.876 Y130.268 E11.82252
G1 X123.879 Y128.658 E11.90783
G1 X121.89 Y127.146 E11.99093
G1 X119.823 Y125.664 E12.07553
G1 X117.748 Y124.264 E12.15878
G1 X115.579 Y122.888 E12.24421
G1 X113.428 Y121.606 E12.3275
G1 X111.215 Y120.373 E12.41176
G1 X108.957 Y119.195 E12.49647
G1 X106.702 Y118.1 E12.57984
G1 X104.389 Y117.056 E12.66425
G1 X102.049 Y116.077 E12.74861
G1 X99.699 Y115.175 E12.83233
G1 X97.334 Y114.341 E12.91574
G1 X94.8 Y113.526 E13.00427
G1 X94.463 Y113.422 E13.016
G1 X93.595 Y113.113 E13.04665
G1 X92.758 Y112.73 E13.07726
G1 X91.957 Y112.276 E13.10789
G1 X91.199 Y111.754 E13.1385
G1 X90.489 Y111.168 E13.16912
G1 X89.832 Y110.523 E13.19974
G1 X89.234 Y109.823 E13.23036
G1 X88.699 Y109.074 E13.26097
G1 X88.231 Y108.281 E13.2916
G1 X87.833 Y107.451 E13.32222
G1 X87.509 Y106.589 E13.35284
G1 X87.261 Y105.703 E13.38345
G1 X87.09 Y104.798 E13.41408
G1 X86.988 Y103.619 E13.45344
G1 X86.978 Y103.295 E13.46422
G1 X86.973 Y102.97 E13.47503
G1 X86.973 Y98.052 E13.6386
G1 X86.982 Y97.37 E13.66129
G1 X87.034 Y96.451 E13.6919
G1 X87.166 Y95.54 E13.72252
G1 X87.376 Y94.643 E13.75316
G1 X87.663 Y93.769 E13.78376
G1 X88.025 Y92.922 E13.8144
G1 X88.459 Y92.11 E13.84502
G1 X88.962 Y91.339 E13.87564
G1 X89.53 Y90.615 E13.90624
G1 X90.159 Y89.942 E13.93688
G0 F6000 X90.55 Y90.12
G1 F1200 X91.232 Y89.527 E13.96694
G1 X91.963 Y88.997 E13.99697
G1 X92.738 Y88.533 E14.02702
G1 X93.551 Y88.14 E14.05705
G1 X94.395 Y87.82 E14.08707
G1 X95.265 Y87.576 E14.11712
G1 X96.153 Y87.411 E14.14716
G1 X97.32 Y87.313 E14.18612
G1 X97.711 Y87.303 E14.19912
G1 X97.972 Y87.3 E14.20781
G1 X145.324 Y87.3 E15.78274
G1 X146.168 Y87.311 E15.81081
G1 X147.07 Y87.364 E15.84087
G1 X147.963 Y87.496 E15.87089
G1 X148.841 Y87.707 E15.90092
G1 X149.697 Y87.995 E15.93096
G1 X150.524 Y88.357 E15.96099
G1 X151.316 Y88.792 E15.99104
G1 X152.067 Y89.294 E16.02109
G1 X152.77 Y89.861 E16.05113
G1 X153.42 Y90.488 E16.08116
G1 X154.012 Y91.17 E16.1112
G1 X154.542 Y91.901 E16.14123
G1 X155.004 Y92.677 E16.17127
G1 X155.397 Y93.49 E16.2013
G1 X155.715 Y94.335 E16.23133
G1 X155.958 Y95.205 E16.26138
G1 X156.123 Y96.093 E16.29142
G1 X156.218 Y97.22 E16.32904
G1 X156.227 Y97.536 E16.33955
G1 X156.231 Y97.826 E16.3492
G1 X156.23 Y128.286 E17.3623
G1 X156.221 Y129.013 E17.38648
G1 X156.17 Y129.915 E17.41653
G1 X156.039 Y130.809 E17.44658
G1 X155.83 Y131.687 E17.4766
G1 X155.544 Y132.544 E17.50665
G1 X155.183 Y133.372 E17.53669
G1 X154.751 Y134.164 E17.5667
G1 X154.25 Y134.916 E17.59675
G1 X153.684 Y135.62 E17.6268
G1 X153.059 Y136.271 E17.65681
G1 X152.378 Y136.865 E17.68687
G1 X151.647 Y137.396 E17.71692
G1 X150.873 Y137.86 E17.74693
G1 X150.06 Y138.254 E17.77698
G1 X149.216 Y138.574 E17.807
G1 X148.346 Y138.819 E17.83707
G1 X147.459 Y138.985 E17.86708
G1 X146.321 Y139.083 E17.90507
G1 X146.014 Y139.092 E17.91529
G1 X145.717 Y139.096 E17.92516
G1 X140.604 Y139.096 E18.09522
G1 X139.892 Y139.086 E18.11891
G1 X138.99 Y139.033 E18.14896
G1 X138.097 Y138.901 E18.17898
G1 X137.219 Y138.69 E18.20902
G1 X136.363 Y138.403 E18.23905
G1 X135.535 Y138.041 E18.2691
G1 X134.743 Y137.607 E18.29914
G1 X133.993 Y137.105 E18.32916
G1 X133.289 Y136.538 E18.35922
G1 X132.878 Y136.155 E18.37791
G1 X131.864 Y135.155 E18.42527
G1 X131.758 Y135.048 E18.43028
G1 X129.942 Y133.31 E18.51389
G1 X128.045 Y131.594 E18.59897
G1 X126.103 Y129.936 E18.6839
G1 X124.144 Y128.356 E18.76761
G1 X122.142 Y126.835 E18.85123
G1 X120.057 Y125.34 E18.93656
G1 X117.94 Y123.912 E19.02149
G1 X115.793 Y122.549 E19.10608
G1 X113.647 Y121.271 E19.18915
G1 X111.387 Y120.012 E19.2752
G1 X109.138 Y118.838 E19.35958
G1 X106.892 Y117.747 E19.44263
G1 X104.529 Y116.681 E19.52885
G1 X102.21 Y115.711 E19.61245
G1 X99.839 Y114.8 E19.69693
G1 X97.442 Y113.955 E19.78147
G1 X94.972 Y113.161 E19.86776
G1 X94.58 Y113.04 E19.88141
G1 X93.73 Y112.736 E19.91143
G1 X92.91 Y112.358 E19.94146
G1 X92.126 Y111.909 E19.97151
G1 X91.385 Y111.393 E20.00154
G1 X90.693 Y110.813 E20.03158
G1 X90.055 Y110.174 E20.06161
G1 X89.475 Y109.481 E20.09166
G1 X88.96 Y108.74 E20.12168
G1 X88.512 Y107.956 E20.15171
G1 X88.135 Y107.135 E20.18176
G1 X87.832 Y106.284 E20.2118
G1 X87.605 Y105.41 E20.24184
G1 X87.457 Y104.519 E20.27188
G1 X87.388 Y103.607 E20.3023
G1 X87.378 Y103.283 E20.31308
G1 X87.373 Y102.97 E20.32349
G1 X87.373 Y98.057 E20.4869
G1 X87.382 Y97.375 E20.50958
G1 X87.434 Y96.474 E20.5396
G1 X87.565 Y95.58 E20.56965
G1 X87.775 Y94.702 E20.59968
G1 X88.062 Y93.846 E20.62971
G1 X88.423 Y93.018 E20.65975
G1 X88.857 Y92.226 E20.68979
G1 X89.358 Y91.475 E20.71982
G1 X89.924 Y90.771 E20.74986
G1 X90.55 Y90.12 E20.7799
G1 F2700 E15.7799
;MESH:mao.stl
G0 F6000 X97.992 Y96.835
G0 X97.992 Y97.92
G0 X98.355 Y102.518
G0 X129.182 Y102.865
G0 X140.468 Y117.35
G0 X140.631 Y128.297
;TYPE:WALL-INNER
G1 F2700 E20.7799
G1 F1200 X140.631 Y128.098 E20.78652
G1 X140.631 Y117.294 E21.14586
G1 X129.262 Y102.7 E21.76116
G1 X98.173 Y102.7 E22.79519
G1 X98.172 Y98.299 E22.94156
G1 X98.172 Y98.1 E22.94818
G1 X98.371 Y98.1 E22.95247
G1 X145.431 Y98.1 E24.51769
G1 X145.431 Y128.296 E25.52201
G1 X140.83 Y128.297 E25.67504
G1 X140.631 Y128.297 E25.67932
G0 F6000 X140.231 Y128.697
;TYPE:WALL-OUTER
G1 F1200 X140.231 Y117.431 E26.05403
G1 X129.067 Y103.1 E26.65824
G1 X97.773 Y103.1 E27.69909
G1 X97.772 Y97.7 E27.87869
G1 X145.831 Y97.7 E29.47714
G1 X145.831 Y128.696 E30.50807
G1 X140.231 Y128.697 E30.69433
G0 F6000 X140.501 Y128.427
G0 X140.741 Y127.907
G0 X141.021 Y127.907
;TYPE:SKIN
G1 F1200 X141.021 Y117.16 E31.05177
G1 X129.453 Y102.31 E31.67786
G1 X98.563 Y102.31 E32.70527
G1 X98.562 Y98.49 E32.83232
G1 X145.041 Y98.49 E34.37822
G1 X145.041 Y127.906 E35.3566
G1 X141.021 Y127.907 E35.4903
G1 F2700 E30.4903
G0 F6000 X140.741 Y127.907
G0 X145.249 Y128.114
G0 X145.321 Y99.06
G0 X144.88 Y99.06
G1 F2700 E35.4903
G1 F1200 X144.471 Y98.65 E35.50957
G0 F6000 X143.905 Y98.65
G1 F1200 X144.88 Y99.625 E35.55543
G0 F6000 X144.88 Y100.191
G1 F1200 X143.339 Y98.65 E35.62791
G0 F6000 X142.774 Y98.65
G1 F1200 X144.88 Y100.757 E35.72699
G0 F6000 X144.88 Y101.322
G1 F1200 X142.208 Y98.65 E35.85268
G0 F6000 X141.642 Y98.65
G1 F1200 X144.88 Y101.888 E36.00498
G0 F6000 X144.88 Y102.454
G1 F1200 X141.076 Y98.65 E36.18391
G0 F6000 X140.511 Y98.65
G1 F1200 X144.88 Y103.019 E36.38942
G0 F6000 X144.88 Y103.585
G1 F1200 X139.945 Y98.65 E36.62154
G0 F6000 X139.379 Y98.65
G1 F1200 X144.88 Y104.151 E36.88029
G0 F6000 X144.88 Y104.716
G1 F1200 X138.814 Y98.65 E37.16562
G0 F6000 X138.248 Y98.65
G1 F1200 X144.88 Y105.282 E37.47757
G0 F6000 X144.88 Y105.848
G1 F1200 X137.682 Y98.65 E37.81614
G0 F6000 X137.117 Y98.65
G1 F1200 X144.88 Y106.413 E38.18129
G0 F6000 X144.88 Y106.979
G1 F1200 X136.551 Y98.65 E38.57306
G0 F6000 X135.985 Y98.65
G1 F1200 X144.88 Y107.545 E38.99145
G0 F6000 X144.88 Y108.11
G1 F1200 X135.42 Y98.65 E39.43642
G0 F6000 X134.854 Y98.65
G1 F1200 X144.88 Y108.676 E39.90801
G0 F6000 X144.88 Y109.242
G1 F1200 X134.288 Y98.65 E40.40623
G0 F6000 X133.723 Y98.65
G1 F1200 X144.88 Y109.808 E40.93104
G0 F6000 X144.88 Y110.373
G1 F1200 X133.157 Y98.65 E41.48246
G0 F6000 X132.591 Y98.65
G1 F1200 X144.88 Y110.939 E42.06049
G0 F6000 X144.88 Y111.505
G1 F1200 X132.026 Y98.65 E42.66513
G0 F6000 X131.46 Y98.65
G1 F1200 X144.88 Y112.07 E43.29637
G0 F6000 X144.88 Y112.636
G1 F1200 X130.894 Y98.65 E43.95422
G0 F6000 X130.328 Y98.65
G1 F1200 X144.88 Y113.202 E44.63871
G0 F6000 X144.88 Y113.767
G1 F1200 X129.763 Y98.65 E45.34976
G0 F6000 X129.197 Y98.65
G1 F1200 X144.88 Y114.333 E46.08744
G0 F6000 X144.88 Y114.899
G1 F1200 X128.631 Y98.65 E46.85175
G0 F6000 X128.066 Y98.65
G1 F1200 X144.88 Y115.464 E47.64263
G0 F6000 X144.88 Y116.03
G1 F1200 X127.5 Y98.65 E48.46013
G0 F6000 X126.934 Y98.65
G1 F1200 X144.88 Y116.596 E49.30425
G0 F6000 X144.88 Y117.161
G1 F1200 X126.369 Y98.65 E50.17495
G0 F6000 X125.803 Y98.65
G1 F1200 X129.302 Y102.149 E50.33954
G0 F6000 X128.736 Y102.149
G1 F1200 X125.237 Y98.65 E50.50412
G0 F6000 X124.672 Y98.65
G1 F1200 X128.17 Y102.149 E50.66868
G0 F6000 X127.605 Y102.149
G1 F1200 X124.106 Y98.65 E50.83326
G0 F6000 X123.54 Y98.65
G1 F1200 X127.039 Y102.149 E50.99784
G0 F6000 X126.473 Y102.149
G1 F1200 X122.975 Y98.65 E51.1624
G0 F6000 X122.409 Y98.65
G1 F1200 X125.908 Y102.149 E51.32698
G0 F6000 X125.342 Y102.149
G1 F1200 X121.843 Y98.65 E51.49156
G0 F6000 X121.278 Y98.65
G1 F1200 X124.776 Y102.149 E51.65612
G0 F6000 X124.211 Y102.149
G1 F1200 X120.712 Y98.65 E51.8207
G0 F6000 X120.146 Y98.65
G1 F1200 X123.645 Y102.149 E51.98529
G0 F6000 X123.079 Y102.149
G1 F1200 X119.58 Y98.65 E52.14987
G0 F6000 X119.015 Y98.65
G1 F1200 X122.514 Y102.149 E52.31445
G0 F6000 X121.948 Y102.149
G1 F1200 X118.449 Y98.65 E52.47903
G0 F6000 X117.883 Y98.65
G1 F1200 X121.382 Y102.149 E52.64362
G0 F6000 X120.816 Y102.149
G1 F1200 X117.318 Y98.65 E52.80817
G0 F6000 X116.752 Y98.65
G1 F1200 X120.251 Y102.149 E52.97276
G0 F6000 X119.685 Y102.149
G1 F1200 X116.186 Y98.65 E53.13734
G0 F6000 X115.621 Y98.65
G1 F1200 X119.119 Y102.149 E53.3019
G0 F6000 X118.554 Y102.149
G1 F1200 X115.055 Y98.65 E53.46648
G0 F6000 X114.489 Y98.65
G1 F1200 X117.988 Y102.149 E53.63106
G0 F6000 X117.422 Y102.149
G1 F1200 X113.924 Y98.65 E53.79562
G0 F6000 X113.358 Y98.65
G1 F1200 X116.857 Y102.149 E53.9602
G0 F6000 X116.291 Y102.149
