;FLAVOR:Marlin
;TIME:5642
;Filament used: 4.61382m
;Layer height: 0.2
;MINX:86.175
;MINY:96.55
;MINZ:0.2
;MAXX:148.825
;MAXY:138.45
;MAXZ:45
;Generated with Cura_SteamEngine 4.9.1
M140 S50
M105
M190 S50
M104 S200
M105
M109 S200
M82 ;absolute extrusion mode
; Ender 3 Custom Start G-code
G92 E0 ; Reset Extruder
G28 ; Home all axes
G1 Z2.0 F3000 ; Move Z Axis up little to prevent scratching of Heat Bed
G1 X0.1 Y20 Z0.3 F5000.0 ; Move to start position
G1 X0.1 Y200.0 Z0.3 F1500.0 E15 ; Draw the first line
G1 X0.4 Y200.0 Z0.3 F5000.0 ; Move to side a little
G1 X0.4 Y20 Z0.3 F1500.0 E30 ; Draw the second line
G92 E0 ; Reset Extruder
G1 Z2.0 F3000 ; Move Z Axis up little to prevent scratching of Heat Bed
G1 X5 Y20 Z0.3 F5000.0 ; Move over to prevent blob squish
G92 E0
G92 E0
G1 F2700 E-5
;LAYER_COUNT:225
;LAYER:0
M107
G0 F6000 X90.061 Y99.177 Z0.2
;TYPE:SKIRT
G1 F2700 E0
G1 F1200 X90.801 Y98.601 E0.03119
G1 X91.587 Y98.089 E0.06239
G1 X92.414 Y97.647 E0.09358
G1 X93.276 Y97.277 E0.12478
G1 X94.166 Y96.981 E0.15597
G1 X95.078 Y96.763 E0.18716
G1 X96.005 Y96.622 E0.21835
G1 X96.876 Y96.563 E0.24738
G1 X97.197 Y96.554 E0.25806
G1 X97.505 Y96.55 E0.26831
G1 X137.118 Y96.55 E1.58584
G1 X137.974 Y96.561 E1.61432
G1 X138.91 Y96.615 E1.6455
G1 X139.838 Y96.747 E1.67668
G1 X140.752 Y96.959 E1.70788
G1 X141.644 Y97.248 E1.73907
G1 X142.509 Y97.611 E1.77027
G1 X143.339 Y98.047 E1.80145
G1 X144.13 Y98.552 E1.83267
G1 X144.874 Y99.123 E1.86386
G1 X145.567 Y99.755 E1.89505
G1 X146.204 Y100.443 E1.92624
G1 X146.779 Y101.184 E1.95743
G1 X147.29 Y101.97 E1.98862
G1 X147.732 Y102.798 E2.01983
G1 X148.101 Y103.66 E2.05102
G1 X148.396 Y104.55 E2.08221
G1 X148.614 Y105.462 E2.11339
G1 X148.754 Y106.39 E2.14461
G1 X148.812 Y107.251 E2.17331
G1 X148.821 Y107.571 E2.18396
G1 X148.825 Y107.88 E2.19424
G1 X148.824 Y126.85 E2.82518
G1 X148.815 Y127.577 E2.84936
G1 X148.764 Y128.514 E2.88057
G1 X148.632 Y129.442 E2.91175
G1 X148.423 Y130.356 E2.94293
G1 X148.136 Y131.249 E2.97413
G1 X147.774 Y132.115 E3.00535
G1 X147.34 Y132.946 E3.03653
G1 X146.836 Y133.737 E3.06773
G1 X146.267 Y134.482 E3.09891
G1 X145.636 Y135.177 E3.13013
G1 X144.949 Y135.815 E3.16131
G1 X144.21 Y136.392 E3.19249
G1 X143.424 Y136.904 E3.22369
G1 X142.598 Y137.347 E3.25487
G1 X141.736 Y137.719 E3.2861
G1 X140.847 Y138.015 E3.31726
G1 X139.935 Y138.235 E3.34846
G1 X139.008 Y138.376 E3.37965
G1 X138.124 Y138.437 E3.40912
G1 X137.803 Y138.446 E3.4198
G1 X137.495 Y138.45 E3.43005
G1 X97.74 Y138.449 E4.7523
G1 X97.042 Y138.44 E4.77552
G1 X96.106 Y138.388 E4.8067
G1 X95.177 Y138.256 E4.83791
G1 X94.263 Y138.046 E4.8691
G1 X93.37 Y137.759 E4.9003
G1 X92.505 Y137.396 E4.9315
G1 X91.674 Y136.962 E4.96268
G1 X90.883 Y136.458 E4.99388
G1 X90.138 Y135.888 E5.02508
G1 X89.444 Y135.257 E5.05627
G1 X88.807 Y134.57 E5.08743
G1 X88.23 Y133.83 E5.11864
G1 X87.718 Y133.044 E5.14984
G1 X87.275 Y132.217 E5.18105
G1 X86.904 Y131.356 E5.21223
G1 X86.608 Y130.466 E5.24343
G1 X86.389 Y129.554 E5.27462
G1 X86.248 Y128.627 E5.30581
G1 X86.188 Y127.738 E5.33544
G1 X86.179 Y127.405 E5.34652
G1 X86.175 Y127.108 E5.3564
G1 X86.176 Y108.075 E5.98944
G1 X86.185 Y107.41 E6.01156
G1 X86.238 Y106.474 E6.04274
G1 X86.37 Y105.545 E6.07395
G1 X86.581 Y104.631 E6.10515
G1 X86.869 Y103.739 E6.13633
G1 X87.232 Y102.874 E6.16753
G1 X87.667 Y102.043 E6.19873
G1 X88.171 Y101.253 E6.22989
G1 X88.741 Y100.508 E6.26109
G1 X89.373 Y99.814 E6.29231
G1 X90.061 Y99.177 E6.3235
G0 F6000 X90.449 Y99.373
G1 F1200 X91.185 Y98.82 E6.35412
G1 X91.966 Y98.332 E6.38475
G1 X92.786 Y97.914 E6.41536
G1 X93.64 Y97.569 E6.44599
G1 X94.52 Y97.299 E6.47661
G1 X95.42 Y97.107 E6.50722
G1 X96.334 Y96.993 E6.53785
G1 X96.887 Y96.963 E6.55627
G1 X97.208 Y96.954 E6.56695
G1 X97.505 Y96.95 E6.57683
G1 X137.118 Y96.95 E7.89437
G1 X137.968 Y96.961 E7.92264
G1 X138.887 Y97.014 E7.95326
G1 X139.798 Y97.147 E7.98388
G1 X140.694 Y97.358 E8.01449
G1 X141.568 Y97.646 E8.0451
G1 X142.415 Y98.009 E8.07575
G1 X143.226 Y98.444 E8.10636
G1 X143.996 Y98.948 E8.13697
G1 X144.72 Y99.517 E8.16759
G1 X145.392 Y100.147 E8.19823
G1 X146.007 Y100.832 E8.22885
G1 X146.56 Y101.568 E8.25947
G1 X147.047 Y102.349 E8.29008
G1 X147.464 Y103.17 E8.32071
G1 X147.809 Y104.024 E8.35134
G1 X148.078 Y104.904 E8.38195
G1 X148.27 Y105.805 E8.41259
G1 X148.383 Y106.718 E8.44319
G1 X148.412 Y107.262 E8.46131
G1 X148.421 Y107.582 E8.47195
G1 X148.425 Y107.88 E8.48187
G1 X148.424 Y126.845 E9.11265
G1 X148.415 Y127.572 E9.13683
G1 X148.364 Y128.491 E9.16744
G1 X148.233 Y129.403 E9.19808
G1 X148.023 Y130.299 E9.22869
G1 X147.737 Y131.174 E9.25931
G1 X147.376 Y132.021 E9.28993
G1 X146.942 Y132.833 E9.32056
G1 X146.44 Y133.605 E9.35119
G1 X145.872 Y134.33 E9.38182
G1 X145.244 Y135.003 E9.41243
G1 X144.56 Y135.619 E9.44305
G1 X143.825 Y136.173 E9.47366
G1 X143.045 Y136.662 E9.50428
G1 X142.225 Y137.081 E9.53491
G1 X141.372 Y137.427 E9.56553
G1 X140.492 Y137.698 E9.59615
G1 X139.592 Y137.891 E9.62677
G1 X138.678 Y138.006 E9.65741
G1 X138.113 Y138.037 E9.67623
G1 X137.792 Y138.046 E9.68691
G1 X137.495 Y138.05 E9.69679
G1 X97.745 Y138.049 E11.01888
G1 X97.047 Y138.04 E11.04209
G1 X96.128 Y137.988 E11.07271
G1 X95.217 Y137.857 E11.10332
G1 X94.321 Y137.647 E11.13393
G1 X93.446 Y137.36 E11.16456
G1 X92.599 Y136.998 E11.19519
G1 X91.787 Y136.564 E11.22582
G1 X91.016 Y136.062 E11.25642
G1 X90.291 Y135.494 E11.28705
G1 X89.618 Y134.865 E11.31769
G1 X89.003 Y134.181 E11.34828
G1 X88.449 Y133.446 E11.37889
G1 X87.961 Y132.665 E11.40952
G1 X87.542 Y131.845 E11.44015
G1 X87.196 Y130.992 E11.47077
G1 X86.926 Y130.112 E11.50138
G1 X86.733 Y129.211 E11.53203
G1 X86.619 Y128.298 E11.56263
G1 X86.588 Y127.727 E11.58165
G1 X86.579 Y127.394 E11.59273
G1 X86.575 Y127.108 E11.60224
G1 X86.576 Y108.081 E12.23509
G1 X86.585 Y107.416 E12.25721
G1 X86.637 Y106.496 E12.28785
G1 X86.769 Y105.585 E12.31847
G1 X86.98 Y104.689 E12.34909
G1 X87.267 Y103.814 E12.37971
G1 X87.63 Y102.968 E12.41033
G1 X88.064 Y102.156 E12.44096
G1 X88.567 Y101.385 E12.47157
G1 X89.136 Y100.661 E12.5022
G1 X89.764 Y99.989 E12.53279
G1 X90.449 Y99.373 E12.56343
G0 F6000 X90.837 Y99.574
G1 F1200 X91.569 Y99.044 E12.59349
G1 X92.344 Y98.581 E12.62352
G1 X93.157 Y98.188 E12.65355
G1 X94.002 Y97.868 E12.6836
G1 X94.871 Y97.625 E12.71362
G1 X95.759 Y97.459 E12.74366
G1 X96.898 Y97.363 E12.78168
G1 X97.219 Y97.354 E12.79236
G1 X97.505 Y97.35 E12.80187
G1 X137.118 Y97.35 E14.11941
G1 X137.962 Y97.361 E14.14748
G1 X138.864 Y97.414 E14.17753
G1 X139.757 Y97.546 E14.20756
G1 X140.635 Y97.757 E14.23759
G1 X141.491 Y98.045 E14.26763
G1 X142.318 Y98.407 E14.29766
G1 X143.11 Y98.842 E14.32771
G1 X143.861 Y99.344 E14.35776
G1 X144.564 Y99.911 E14.3878
G1 X145.214 Y100.538 E14.41783
G1 X145.806 Y101.22 E14.44787
G1 X146.336 Y101.951 E14.4779
G1 X146.798 Y102.727 E14.50794
G1 X147.191 Y103.54 E14.53797
G1 X147.509 Y104.385 E14.568
G1 X147.752 Y105.255 E14.59805
G1 X147.917 Y106.143 E14.62809
G1 X148.012 Y107.273 E14.6658
G1 X148.021 Y107.593 E14.67645
G1 X148.025 Y107.88 E14.686
G1 X148.024 Y126.84 E15.31661
G1 X148.015 Y127.567 E15.34079
G1 X147.964 Y128.469 E15.37084
G1 X147.833 Y129.363 E15.40089
G1 X147.624 Y130.241 E15.43091
G1 X147.338 Y131.098 E15.46096
G1 X146.977 Y131.926 E15.491
G1 X146.545 Y132.718 E15.52101
G1 X146.044 Y133.47 E15.55106
G1 X145.478 Y134.174 E15.58111
G1 X144.853 Y134.825 E15.61112
G1 X144.172 Y135.419 E15.64118
G1 X143.441 Y135.95 E15.67123
G1 X142.667 Y136.414 E15.70124
G1 X141.854 Y136.808 E15.73129
G1 X141.01 Y137.128 E15.76131
G1 X140.14 Y137.373 E15.79138
G1 X139.253 Y137.539 E15.82139
G1 X138.102 Y137.637 E15.85981
G1 X137.781 Y137.646 E15.87049
G1 X137.495 Y137.65 E15.88
G1 X97.75 Y137.649 E17.20193
G1 X97.052 Y137.64 E17.22515
G1 X96.151 Y137.589 E17.25516
G1 X95.257 Y137.457 E17.28522
G1 X94.379 Y137.248 E17.31524
G1 X93.522 Y136.961 E17.3453
G1 X92.695 Y136.6 E17.37531
G1 X91.902 Y136.167 E17.40536
G1 X91.151 Y135.666 E17.43539
G1 X90.447 Y135.1 E17.46543
G1 X89.796 Y134.474 E17.49547
G1 X89.203 Y133.793 E17.5255
G1 X88.673 Y133.062 E17.55554
G1 X88.209 Y132.287 E17.58558
G1 X87.815 Y131.474 E17.61563
G1 X87.495 Y130.63 E17.64565
G1 X87.251 Y129.76 E17.6757
G1 X87.085 Y128.872 E17.70575
G1 X86.988 Y127.717 E17.7443
G1 X86.979 Y127.384 E17.75538
G1 X86.975 Y127.108 E17.76456
G1 X86.976 Y108.086 E18.39723
G1 X86.985 Y107.421 E18.41935
G1 X87.037 Y106.519 E18.4494
G1 X87.169 Y105.626 E18.47943
G1 X87.379 Y104.748 E18.50945
G1 X87.666 Y103.891 E18.53951
G1 X88.028 Y103.064 E18.56954
G1 X88.461 Y102.272 E18.59956
G1 X88.963 Y101.521 E18.62961
G1 X89.53 Y100.817 E18.65967
G1 X90.156 Y100.167 E18.68969
G1 X90.837 Y99.574 E18.71972
G1 F2700 E13.71972
;MESH:motor.stl
G0 F6000 X97.595 Y106.885
G0 X97.595 Y107.97
G0 X137.043 Y108.332
G0 X137.225 Y126.85
;TYPE:WALL-INNER
G1 F2700 E18.71972
G1 F1200 X97.775 Y126.85 E20.03183
G1 X97.775 Y108.15 E20.6538
G1 X137.225 Y108.15 E21.96591
G1 X137.225 Y126.85 E22.58787
G0 F6000 X137.625 Y127.25
;TYPE:WALL-OUTER
G1 F1200 X97.375 Y127.25 E23.92659
G1 X97.375 Y107.75 E24.57517
G1 X137.625 Y107.75 E25.91389
G1 X137.625 Y127.25 E26.56246
G0 F6000 X137.355 Y126.98
G0 X137.115 Y126.46
G0 X136.835 Y126.46
;TYPE:SKIN
G1 F1200 X98.165 Y126.46 E27.84863
G1 X98.165 Y108.54 E28.44465
G1 X136.835 Y108.54 E29.73082
G1 X136.835 Y126.46 E30.32684
G0 F6000 X137.115 Y126.46
G0 X137.115 Y108.955
G0 X136.674 Y108.955
G1 F1200 X136.418 Y108.699 E30.33888
G0 F6000 X135.852 Y108.699
G1 F1200 X136.674 Y109.521 E30.37755
G0 F6000 X136.674 Y110.087
G1 F1200 X135.287 Y108.699 E30.44281
G0 F6000 X134.721 Y108.699
G1 F1200 X136.674 Y110.653 E30.5347
G0 F6000 X136.674 Y111.218
G1 F1200 X134.155 Y108.699 E30.65318
G0 F6000 X133.59 Y108.699
G1 F1200 X136.674 Y111.784 E30.79827
G0 F6000 X136.674 Y112.35
G1 F1200 X133.024 Y108.699 E30.96998
G0 F6000 X132.458 Y108.699
G1 F1200 X136.674 Y112.915 E31.16829
G0 F6000 X136.674 Y113.481
G1 F1200 X131.893 Y108.699 E31.39319
G0 F6000 X131.327 Y108.699
G1 F1200 X136.674 Y114.047 E31.64472
G0 F6000 X136.674 Y114.612
G1 F1200 X130.761 Y108.699 E31.92285
G0 F6000 X130.196 Y108.699
G1 F1200 X136.674 Y115.178 E32.22758
G0 F6000 X136.674 Y115.744
G1 F1200 X129.63 Y108.699 E32.55893
G0 F6000 X129.064 Y108.699
G1 F1200 X136.674 Y116.309 E32.91688
G0 F6000 X136.674 Y116.875
G1 F1200 X128.498 Y108.699 E33.30146
G0 F6000 X127.933 Y108.699
G1 F1200 X136.674 Y117.441 E33.71263
G0 F6000 X136.674 Y118.006
G1 F1200 X127.367 Y108.699 E34.1504
G0 F6000 X126.801 Y108.699
G1 F1200 X136.674 Y118.572 E34.6148
G0 F6000 X136.674 Y119.138
G1 F1200 X126.236 Y108.699 E35.10579
G0 F6000 X125.67 Y108.699
G1 F1200 X136.674 Y119.703 E35.62339
G0 F6000 X136.674 Y120.269
G1 F1200 X125.104 Y108.699 E36.16761
G0 F6000 X124.539 Y108.699
G1 F1200 X136.674 Y120.835 E36.73842
G0 F6000 X136.674 Y121.401
G1 F1200 X123.973 Y108.699 E37.33586
G0 F6000 X123.407 Y108.699
G1 F1200 X136.674 Y121.966 E37.9599
G0 F6000 X136.674 Y122.532
G1 F1200 X122.842 Y108.699 E38.61054
G0 F6000 X122.276 Y108.699
G1 F1200 X136.674 Y123.098 E39.2878
G0 F6000 X136.674 Y123.663
G1 F1200 X121.71 Y108.699 E39.99166
G0 F6000 X121.145 Y108.699
G1 F1200 X136.674 Y124.229 E40.72212
G0 F6000 X136.674 Y124.795
G1 F1200 X120.579 Y108.699 E41.47921
G0 F6000 X120.013 Y108.699
G1 F1200 X136.674 Y125.36 E42.26289
G0 F6000 X136.674 Y125.926
G1 F1200 X119.448 Y108.699 E43.07317
G0 F6000 X118.882 Y108.699
G1 F1200 X136.481 Y126.299 E43.901
G0 F6000 X135.915 Y126.299
G1 F1200 X118.316 Y108.699 E44.72882
G0 F6000 X117.75 Y108.699
G1 F1200 X135.35 Y126.299 E45.55667
G0 F6000 X134.784 Y126.299
G1 F1200 X117.185 Y108.699 E46.3845
G0 F6000 X116.619 Y108.699
G1 F1200 X134.218 Y126.299 E47.21233
G0 F6000 X133.653 Y126.299
G1 F1200 X116.053 Y108.699 E48.04018
G0 F6000 X115.488 Y108.699
G1 F1200 X133.087 Y126.299 E48.868
G0 F6000 X132.521 Y126.299
G1 F1200 X114.922 Y108.699 E49.69583
G0 F6000 X114.356 Y108.699
G1 F1200 X131.956 Y126.299 E50.52368
G0 F6000 X131.39 Y126.299
G1 F1200 X113.791 Y108.699 E51.35151
G0 F6000 X113.225 Y108.699
G1 F1200 X130.824 Y126.299 E52.17933
G0 F6000 X130.258 Y126.299
G1 F1200 X112.659 Y108.699 E53.00716
G0 F6000 X112.094 Y108.699
G1 F1200 X129.693 Y126.299 E53.83498
G0 F6000 X129.127 Y126.299
G1 F1200 X111.528 Y108.699 E54.66281
G0 F6000 X110.962 Y108.699
G1 F1200 X128.561 Y126.299 E55.49064
G0 F6000 X127.996 Y126.299
G1 F1200 X110.397 Y108.699 E56.31846
G0 F6000 X109.831 Y108.699
G1 F1200 X127.43 Y126.299 E57.14629
G0 F6000 X126.864 Y126.299
G1 F1200 X109.265 Y108.699 E57.97412
G0 F6000 X108.699 Y108.699
G1 F1200 X126.299 Y126.299 E58.80197
G0 F6000 X125.733 Y126.299
G1 F1200 X108.134 Y108.699 E59.62979
G0 F6000 X107.568 Y108.699
G1 F1200 X125.167 Y126.299 E60.45762
G0 F6000 X124.602 Y126.299
G1 F1200 X107.002 Y108.699 E61.28547
G0 F6000 X106.437 Y108.699
G1 F1200 X124.036 Y126.299 E62.1133
G0 F6000 X123.47 Y126.299
G1 F1200 X105.871 Y108.699 E62.94112
G0 F6000 X105.305 Y108.699
G1 F1200 X122.905 Y126.299 E63.76897
G0 F6000 X122.339 Y126.299
G1 F1200 X104.74 Y108.699 E64.5968
G0 F6000 X104.174 Y108.699
G1 F1200 X121.773 Y126.299 E65.42463
G0 F6000 X121.208 Y126.299
G1 F1200 X103.608 Y108.699 E66.25248
G0 F6000 X103.043 Y108.699
G1 F1200 X120.642 Y126.299 E67.0803
G0 F6000 X120.076 Y126.299
G1 F1200 X102.477 Y108.699 E67.90813
G0 F6000 X101.911 Y108.699
G1 F1200 X119.51 Y126.299 E68.73596
G0 F6000 X118.945 Y126.299
G1 F1200 X101.346 Y108.699 E69.56378
G0 F6000 X100.78 Y108.699
G1 F1200 X118.379 Y126.299 E70.39161
G0 F6000 X117.813 Y126.299
G1 F1200 X100.214 Y108.699 E71.21944
G0 F6000 X99.649 Y108.699
G1 F1200 X117.248 Y126.299 E72.04726
G0 F6000 X116.682 Y126.299
G1 F1200 X99.083 Y108.699 E72.87509
G0 F6000 X98.517 Y108.699
G1 F1200 X116.116 Y126.299 E73.70292
G0 F6000 X115.551 Y126.299
G1 F1200 X98.324 Y109.072 E74.51322
G0 F6000 X98.324 Y109.638
G1 F1200 X114.985 Y126.299 E75.2969
G0 F6000 X114.419 Y126.299
G1 F1200 X98.324 Y110.204 E76.05396
G0 F6000 X98.324 Y110.769
G1 F1200 X113.854 Y126.299 E76.78445
G0 F6000 X113.288 Y126.299
G1 F1200 X98.324 Y111.335 E77.48831
G0 F6000 X98.324 Y111.901
G1 F1200 X112.722 Y126.299 E78.16554
G0 F6000 X112.157 Y126.299
G1 F1200 X98.324 Y112.466 E78.81621
G0 F6000 X98.324 Y113.032
G1 F1200 X111.591 Y126.299 E79.44025
G0 F6000 X111.025 Y126.299
G1 F1200 X98.324 Y113.598 E80.03766
G0 F6000 X98.324 Y114.163
G1 F1200 X110.459 Y126.299 E80.60848
G0 F6000 X109.894 Y126.299
G1 F1200 X98.324 Y114.729 E81.1527
G0 F6000 X98.324 Y115.295
G1 F1200 X109.328 Y126.299 E81.67029
G0 F6000 X108.762 Y126.299
G1 F1200 X98.324 Y115.86 E82.16128
G0 F6000 X98.324 Y116.426
G1 F1200 X108.197 Y126.299 E82.62568
G0 F6000 X107.631 Y126.299
G1 F1200 X98.324 Y116.992 E83.06345
G0 F6000 X98.324 Y117.557
G1 F1200 X107.065 Y126.299 E83.47463
G0 F6000 X106.5 Y126.299
G1 F1200 X98.324 Y118.123 E83.8592
G0 F6000 X98.324 Y118.689
G1 F1200 X105.934 Y126.299 E84.21715
G0 F6000 X105.368 Y126.299
G1 F1200 X98.324 Y119.254 E84.5485
G0 F6000 X98.324 Y119.82
G1 F1200 X104.803 Y126.299 E84.85326
G0 F6000 X104.237 Y126.299
G1 F1200 X98.324 Y120.386 E85.13138
G0 F6000 X98.324 Y120.952
G1 F1200 X103.671 Y126.299 E85.38289
G0 F6000 X103.106 Y126.299
G1 F1200 X98.324 Y121.517 E85.60782
G0 F6000 X98.324 Y122.083
G1 F1200 X102.54 Y126.299 E85.80613
G0 F6000 X101.974 Y126.299
G1 F1200 X98.324 Y122.649 E85.97781
G0 F6000 X98.324 Y123.214
G1 F1200 X101.409 Y126.299 E86.12292
G0 F6000 X100.843 Y126.299
G1 F1200 X98.324 Y123.78 E86.24141
G0 F6000 X98.324 Y124.346
G1 F1200 X100.277 Y126.299 E86.33327
G0 F6000 X99.711 Y126.299
G1 F1200 X98.324 Y124.911 E86.39854
G0 F6000 X98.324 Y125.477
G1 F1200 X99.146 Y126.299 E86.4372
