;FLAVOR:Marlin
;TIME:1034
;Filament used: 0.505457m
;Layer height: 0.2
;MINX:88.3
;MINY:88.3
;MINZ:0.2
;MAXX:146.7
;MAXY:146.7
;MAXZ:6.4
;Generated with Cura_SteamEngine 4.9.1
M140 S50
M105
M190 S50
M104 S200
M105
M109 S200
M82 ;absolute extrusion mode
; Ender 3 Custom Start G-code
G92 E0 ; Reset Extruder
G28 ; Home all axes
G1 Z2.0 F3000 ; Move Z Axis up little to prevent scratching of Heat Bed
G1 X0.1 Y20 Z0.3 F5000.0 ; Move to start position
G1 X0.1 Y200.0 Z0.3 F1500.0 E15 ; Draw the first line
G1 X0.4 Y200.0 Z0.3 F5000.0 ; Move to side a little
G1 X0.4 Y20 Z0.3 F1500.0 E30 ; Draw the second line
G92 E0 ; Reset Extruder
G1 Z2.0 F3000 ; Move Z Axis up little to prevent scratching of Heat Bed
G1 X5 Y20 Z0.3 F5000.0 ; Move over to prevent blob squish
G92 E0
G92 E0
G1 F2700 E-5
;LAYER_COUNT:32
;LAYER:0
M107
G0 F6000 X105.388 Y93.194 Z0.2
;TYPE:SKIRT
G1 F2700 E0
G1 F1200 X106.05 Y92.47 E0.03263
G1 X106.172 Y92.348 E0.03837
G1 X106.905 Y91.678 E0.0714
G1 X107.206 Y91.427 E0.08443
G1 X108.008 Y90.819 E0.11791
G1 X108.14 Y90.728 E0.12324
G1 X109.315 Y90.021 E0.16885
G1 X109.733 Y89.804 E0.18451
G1 X110.583 Y89.408 E0.2157
G1 X111.021 Y89.237 E0.23134
G1 X111.256 Y89.151 E0.23966
G1 X111.768 Y88.978 E0.25764
G1 X112.038 Y88.894 E0.26704
G1 X113.372 Y88.568 E0.31272
G1 X113.596 Y88.528 E0.32029
G1 X114.044 Y88.458 E0.33537
G1 X114.264 Y88.428 E0.34275
G1 X115.277 Y88.337 E0.37658
G1 X115.835 Y88.313 E0.39516
G1 X116.198 Y88.304 E0.40723
G1 X116.608 Y88.3 E0.42087
G1 X118.392 Y88.3 E0.48021
G1 X118.802 Y88.304 E0.49384
G1 X119.166 Y88.313 E0.50596
G1 X119.723 Y88.337 E0.5245
G1 X120.729 Y88.427 E0.55809
G1 X120.95 Y88.457 E0.56551
G1 X121.349 Y88.519 E0.57894
G1 X121.574 Y88.558 E0.58653
G1 X122.49 Y88.757 E0.61771
G1 X123.009 Y88.907 E0.63568
G1 X123.278 Y88.992 E0.64506
G1 X123.695 Y89.133 E0.6597
G1 X123.928 Y89.217 E0.66794
G1 X124.796 Y89.572 E0.69913
G1 X125.292 Y89.816 E0.71752
G1 X125.711 Y90.035 E0.73324
G1 X126.83 Y90.707 E0.77666
G1 X126.96 Y90.796 E0.7819
G1 X127.78 Y91.416 E0.81609
G1 X128.083 Y91.668 E0.8292
G1 X128.827 Y92.347 E0.8627
G1 X128.949 Y92.469 E0.86844
G1 X129.616 Y93.199 E0.90132
G1 X129.993 Y93.651 E0.9209
G1 X131.711 Y95.649 E1.00854
G1 X133.409 Y97.513 E1.09241
G1 X135.166 Y99.334 E1.17657
G1 X136.951 Y101.084 E1.25971
G1 X138.768 Y102.767 E1.34209
G1 X141.371 Y105.025 E1.4567
G1 X141.806 Y105.388 E1.47554
G1 X142.53 Y106.05 E1.50817
G1 X142.652 Y106.172 E1.51391
G1 X143.322 Y106.905 E1.54694
G1 X143.573 Y107.206 E1.55997
G1 X144.215 Y108.056 E1.5954
G1 X144.307 Y108.191 E1.60084
G1 X144.972 Y109.302 E1.6439
G1 X145.206 Y109.751 E1.66074
G1 X145.773 Y111.032 E1.70734
G1 X145.822 Y111.165 E1.71205
G1 X145.996 Y111.676 E1.73
G1 X146.097 Y111.998 E1.74123
G1 X146.339 Y112.904 E1.77242
G1 X146.436 Y113.394 E1.78903
G1 X146.478 Y113.634 E1.79714
G1 X146.54 Y114.03 E1.81047
G1 X146.57 Y114.248 E1.81779
G1 X146.663 Y115.277 E1.85215
G1 X146.687 Y115.837 E1.87079
G1 X146.696 Y116.187 E1.88244
G1 X146.7 Y116.581 E1.89554
G1 X146.699 Y118.498 E1.9593
G1 X146.696 Y118.798 E1.96928
G1 X146.687 Y119.158 E1.98126
G1 X146.663 Y119.719 E1.99994
G1 X146.573 Y120.729 E2.03366
G1 X146.543 Y120.95 E2.04108
G1 X146.485 Y121.326 E2.05373
G1 X146.447 Y121.548 E2.06122
G1 X146.25 Y122.465 E2.09242
G1 X146.097 Y122.997 E2.11083
G1 X146.011 Y123.27 E2.12035
G1 X145.862 Y123.71 E2.1358
G1 X145.778 Y123.942 E2.14401
G1 X145.421 Y124.809 E2.17519
G1 X145.188 Y125.284 E2.19279
G1 X144.97 Y125.702 E2.20847
G1 X144.283 Y126.844 E2.2528
G1 X144.193 Y126.975 E2.25808
G1 X143.58 Y127.785 E2.29187
G1 X143.331 Y128.084 E2.30481
G1 X142.687 Y128.792 E2.33664
G1 X142.562 Y128.918 E2.34255
G1 X141.801 Y129.616 E2.37689
G1 X141.359 Y129.985 E2.39604
G1 X139.332 Y131.728 E2.48496
G1 X137.505 Y133.392 E2.56715
G1 X135.666 Y135.166 E2.65214
G1 X133.916 Y136.951 E2.73528
G1 X132.233 Y138.768 E2.81765
G1 X129.975 Y141.371 E2.93226
G1 X129.612 Y141.806 E2.95111
G1 X128.95 Y142.53 E2.98374
G1 X128.828 Y142.652 E2.98948
G1 X128.095 Y143.322 E3.02251
G1 X127.794 Y143.573 E3.03554
G1 X126.992 Y144.181 E3.06901
G1 X126.86 Y144.272 E3.07435
G1 X125.685 Y144.979 E3.11996
G1 X125.267 Y145.196 E3.13562
G1 X123.983 Y145.762 E3.18229
G1 X123.751 Y145.847 E3.19051
G1 X123.237 Y146.021 E3.20856
G1 X122.964 Y146.106 E3.21807
G1 X121.628 Y146.432 E3.26381
G1 X121.404 Y146.472 E3.27138
G1 X120.956 Y146.542 E3.28646
G1 X120.736 Y146.572 E3.29384
G1 X119.723 Y146.663 E3.32767
G1 X119.165 Y146.687 E3.34625
G1 X118.802 Y146.696 E3.35832
G1 X118.392 Y146.7 E3.37196
G1 X116.48 Y146.699 E3.43555
G1 X116.19 Y146.696 E3.4452
G1 X115.813 Y146.686 E3.45774
G1 X115.321 Y146.664 E3.47412
G1 X114.923 Y146.639 E3.48739
G1 X114.738 Y146.624 E3.49356
G1 X113.772 Y146.503 E3.52594
G1 X113.468 Y146.451 E3.5362
G1 X112.516 Y146.244 E3.5686
G1 X112.3 Y146.187 E3.57603
G1 X110.998 Y145.755 E3.62166
G1 X110.551 Y145.575 E3.63769
G1 X109.298 Y144.976 E3.68388
G1 X109.049 Y144.837 E3.69336
G1 X107.886 Y144.088 E3.73937
G1 X107.601 Y143.878 E3.75115
G1 X106.846 Y143.268 E3.78343
G1 X106.607 Y143.057 E3.79404
G1 X105.627 Y142.075 E3.84018
G1 X104.843 Y141.181 E3.87973
G1 X103.803 Y139.95 E3.93333
G1 X102.138 Y138.09 E4.01636
G1 X100.408 Y136.262 E4.10007
G1 X98.621 Y134.481 E4.18398
G1 X96.8 Y132.764 E4.26722
G1 X94.899 Y131.072 E4.35187
G1 X93.773 Y130.117 E4.40098
G1 X93.62 Y129.985 E4.4077
G1 X92.919 Y129.368 E4.43876
G1 X91.939 Y128.389 E4.48483
G1 X91.729 Y128.151 E4.49539
G1 X91.117 Y127.392 E4.52782
G1 X90.911 Y127.112 E4.53938
G1 X90.173 Y125.968 E4.58466
G1 X90.075 Y125.793 E4.59133
G1 X89.646 Y124.941 E4.62305
G1 X89.494 Y124.604 E4.63535
G1 X89.148 Y123.742 E4.66624
G1 X89.058 Y123.487 E4.67524
G1 X88.789 Y122.611 E4.70572
G1 X88.75 Y122.462 E4.71084
G1 X88.549 Y121.532 E4.74249
G1 X88.497 Y121.228 E4.75274
G1 X88.376 Y120.267 E4.78496
G1 X88.361 Y120.083 E4.7911
G1 X88.336 Y119.673 E4.80476
G1 X88.314 Y119.173 E4.82141
G1 X88.304 Y118.799 E4.83385
G1 X88.3 Y118.388 E4.84752
G1 X88.301 Y116.46 E4.91165
G1 X88.304 Y116.188 E4.92069
G1 X88.313 Y115.837 E4.93237
G1 X88.337 Y115.278 E4.95098
G1 X88.428 Y114.264 E4.98484
G1 X88.458 Y114.044 E4.99223
G1 X88.515 Y113.674 E5.00468
G1 X88.553 Y113.452 E5.01217
G1 X88.75 Y112.535 E5.04337
G1 X88.907 Y111.99 E5.06223
G1 X88.994 Y111.715 E5.07182
G1 X89.135 Y111.299 E5.08643
G1 X89.218 Y111.069 E5.09457
G1 X89.574 Y110.201 E5.12577
G1 X89.812 Y109.716 E5.14374
G1 X90.03 Y109.298 E5.15942
G1 X90.717 Y108.156 E5.20374
G1 X90.807 Y108.025 E5.20903
G1 X91.416 Y107.22 E5.2426
G1 X91.668 Y106.917 E5.25571
G1 X92.347 Y106.173 E5.28921
G1 X92.469 Y106.051 E5.29495
G1 X93.199 Y105.384 E5.32784
G1 X93.651 Y105.007 E5.34742
G1 X95.668 Y103.272 E5.43591
G1 X97.495 Y101.608 E5.5181
G1 X99.334 Y99.834 E5.60309
G1 X101.084 Y98.049 E5.68623
G1 X102.767 Y96.232 E5.7686
G1 X105.029 Y93.624 E5.88343
G1 X105.388 Y93.194 E5.90206
G0 F6000 X105.695 Y93.45
G1 F1200 X106.333 Y92.753 E5.93349
G1 X106.455 Y92.631 E5.93922
G1 X107.161 Y91.985 E5.97105
G1 X107.462 Y91.734 E5.98409
G1 X108.235 Y91.148 E6.01635
G1 X108.367 Y91.057 E6.02168
G1 X109.499 Y90.376 E6.06562
G1 X109.917 Y90.159 E6.08129
G1 X111.158 Y89.613 E6.12638
G1 X111.393 Y89.527 E6.1347
G1 X111.887 Y89.36 E6.15205
G1 X112.157 Y89.276 E6.16145
G1 X113.443 Y88.962 E6.20548
G1 X113.667 Y88.922 E6.21305
G1 X114.098 Y88.854 E6.22756
G1 X114.318 Y88.824 E6.23495
G1 X115.295 Y88.737 E6.26757
G1 X115.853 Y88.713 E6.28615
G1 X116.202 Y88.704 E6.29776
G1 X116.608 Y88.7 E6.31126
G1 X118.392 Y88.7 E6.3706
G1 X118.798 Y88.704 E6.3841
G1 X119.148 Y88.713 E6.39575
G1 X119.705 Y88.737 E6.41429
G1 X120.675 Y88.823 E6.44668
G1 X120.896 Y88.853 E6.4541
G1 X121.28 Y88.913 E6.46702
G1 X121.505 Y88.952 E6.47462
G1 X122.405 Y89.148 E6.50525
G1 X122.889 Y89.289 E6.52202
G1 X123.158 Y89.374 E6.5314
G1 X123.559 Y89.509 E6.54548
G1 X123.792 Y89.593 E6.55372
G1 X124.644 Y89.943 E6.58435
G1 X125.107 Y90.171 E6.60152
G1 X125.526 Y90.39 E6.61724
G1 X126.604 Y91.037 E6.65906
G1 X126.734 Y91.126 E6.6643
G1 X127.524 Y91.723 E6.69723
G1 X127.827 Y91.975 E6.71034
G1 X128.544 Y92.63 E6.74264
G1 X128.666 Y92.752 E6.74838
G1 X129.309 Y93.455 E6.78007
G1 X129.728 Y93.958 E6.80184
G1 X131.395 Y95.896 E6.88686
G1 X133.125 Y97.794 E6.97228
G1 X134.881 Y99.615 E7.05642
G1 X136.664 Y101.362 E7.13944
G1 X138.516 Y103.079 E7.22344
G1 X141.081 Y105.303 E7.33636
G1 X141.55 Y105.695 E7.35669
G1 X142.247 Y106.333 E7.38811
G1 X142.369 Y106.455 E7.39385
G1 X143.015 Y107.161 E7.42568
G1 X143.266 Y107.462 E7.43872
G1 X143.884 Y108.282 E7.47287
G1 X143.976 Y108.417 E7.4783
G1 X144.617 Y109.487 E7.51979
G1 X144.851 Y109.936 E7.53663
G1 X145.397 Y111.171 E7.58154
G1 X145.446 Y111.304 E7.58625
G1 X145.614 Y111.796 E7.60354
G1 X145.715 Y112.118 E7.61477
G1 X145.952 Y113.007 E7.64537
G1 X146.042 Y113.463 E7.66083
G1 X146.084 Y113.703 E7.66893
G1 X146.144 Y114.085 E7.68179
G1 X146.174 Y114.303 E7.68911
G1 X146.263 Y115.294 E7.72221
G1 X146.287 Y115.854 E7.74085
G1 X146.296 Y116.192 E7.7521
G1 X146.3 Y116.581 E7.76503
G1 X146.299 Y118.494 E7.82866
G1 X146.296 Y118.794 E7.83864
G1 X146.287 Y119.141 E7.85018
G1 X146.263 Y119.702 E7.86886
G1 X146.177 Y120.675 E7.90135
G1 X146.147 Y120.896 E7.90877
G1 X146.091 Y121.258 E7.92095
G1 X146.053 Y121.48 E7.92844
G1 X145.858 Y122.38 E7.95907
G1 X145.715 Y122.877 E7.97627
G1 X145.629 Y123.15 E7.98579
G1 X145.486 Y123.574 E8.00067
G1 X145.402 Y123.806 E8.00888
G1 X145.051 Y124.657 E8.0395
G1 X144.834 Y125.099 E8.05587
G1 X144.616 Y125.517 E8.07155
G1 X143.954 Y126.617 E8.11426
G1 X143.864 Y126.748 E8.11954
G1 X143.272 Y127.529 E8.15214
G1 X143.023 Y127.828 E8.16508
G1 X142.403 Y128.51 E8.19573
G1 X142.278 Y128.636 E8.20164
G1 X141.545 Y129.309 E8.23473
G1 X141.042 Y129.728 E8.25651
G1 X139.105 Y131.395 E8.34151
G1 X137.205 Y133.126 E8.42699
G1 X135.385 Y134.881 E8.51109
G1 X133.638 Y136.664 E8.59411
G1 X131.921 Y138.516 E8.67811
G1 X129.697 Y141.081 E8.79102
G1 X129.305 Y141.55 E8.81135
G1 X128.667 Y142.247 E8.84278
G1 X128.545 Y142.369 E8.84852
G1 X127.839 Y143.015 E8.88035
G1 X127.538 Y143.266 E8.89338
G1 X126.765 Y143.852 E8.92565
G1 X126.633 Y143.943 E8.93098
G1 X125.501 Y144.624 E8.97492
G1 X125.083 Y144.841 E8.99058
G1 X123.846 Y145.386 E9.03554
G1 X123.614 Y145.471 E9.04376
G1 X123.118 Y145.639 E9.06118
G1 X122.845 Y145.724 E9.07069
G1 X121.557 Y146.038 E9.11478
G1 X121.333 Y146.078 E9.12235
G1 X120.902 Y146.146 E9.13686
G1 X120.682 Y146.176 E9.14425
G1 X119.705 Y146.263 E9.17687
G1 X119.147 Y146.287 E9.19545
G1 X118.798 Y146.296 E9.20706
G1 X118.392 Y146.3 E9.22056
G1 X116.484 Y146.299 E9.28402
G1 X116.194 Y146.296 E9.29367
G1 X115.83 Y146.286 E9.30578
G1 X115.338 Y146.264 E9.32216
G1 X114.955 Y146.24 E9.33492
G1 X114.77 Y146.225 E9.3411
G1 X113.84 Y146.108 E9.37227
G1 X113.536 Y146.056 E9.38253
G1 X112.618 Y145.857 E9.41377
G1 X112.402 Y145.8 E9.4212
G1 X111.148 Y145.384 E9.46515
G1 X110.701 Y145.204 E9.48117
G1 X109.493 Y144.627 E9.5257
G1 X109.244 Y144.488 E9.53518
G1 X108.123 Y143.766 E9.57953
G1 X107.838 Y143.556 E9.59131
G1 X107.111 Y142.968 E9.62241
G1 X106.872 Y142.757 E9.63301
G1 X105.927 Y141.811 E9.67748
G1 X105.285 Y141.081 E9.70982
G1 X105.149 Y140.923 E9.71675
G1 X104.123 Y139.709 E9.76962
G1 X102.427 Y137.814 E9.8542
G1 X100.698 Y135.987 E9.93787
G1 X98.895 Y134.19 E10.02253
G1 X97.077 Y132.476 E10.10564
G1 X95.139 Y130.751 E10.19193
G1 X94.032 Y129.812 E10.24021
G1 X93.885 Y129.685 E10.24667
G1 X93.184 Y129.068 E10.27773
G1 X92.239 Y128.124 E10.32216
G1 X92.029 Y127.886 E10.33271
G1 X91.439 Y127.155 E10.36396
G1 X91.233 Y126.875 E10.37552
G1 X90.522 Y125.772 E10.41917
G1 X90.424 Y125.597 E10.42584
G1 X90.01 Y124.776 E10.45642
G1 X89.858 Y124.439 E10.46872
G1 X89.525 Y123.609 E10.49846
G1 X89.435 Y123.354 E10.50746
G1 X89.176 Y122.51 E10.53682
G1 X89.137 Y122.361 E10.54194
G1 X88.944 Y121.464 E10.57246
G1 X88.892 Y121.16 E10.58272
G1 X88.775 Y120.234 E10.61376
G1 X88.76 Y120.05 E10.6199
G1 X88.735 Y119.655 E10.63306
G1 X88.713 Y119.155 E10.64971
G1 X88.704 Y118.795 E10.66169
G1 X88.7 Y118.388 E10.67523
G1 X88.701 Y116.464 E10.73922
G1 X88.704 Y116.192 E10.74827
G1 X88.713 Y115.854 E10.75951
G1 X88.737 Y115.295 E10.77812
G1 X88.824 Y114.318 E10.81075
G1 X88.854 Y114.098 E10.81813
G1 X88.909 Y113.742 E10.83011
G1 X88.947 Y113.52 E10.8376
G1 X89.142 Y112.62 E10.86823
G1 X89.289 Y112.111 E10.88585
G1 X89.376 Y111.836 E10.89545
G1 X89.511 Y111.435 E10.90952
G1 X89.594 Y111.205 E10.91765
G1 X89.944 Y110.353 E10.94829
G1 X90.166 Y109.901 E10.96504
G1 X90.384 Y109.483 E10.98072
G1 X91.046 Y108.383 E11.02342
G1 X91.136 Y108.252 E11.0287
G1 X91.723 Y107.476 E11.06106
G1 X91.975 Y107.173 E11.07417
G1 X92.63 Y106.456 E11.10647
G1 X92.752 Y106.334 E11.11221
G1 X93.455 Y105.691 E11.1439
G1 X93.958 Y105.272 E11.16567
G1 X95.895 Y103.605 E11.25067
G1 X97.795 Y101.874 E11.33616
G1 X99.615 Y100.119 E11.42025
G1 X101.362 Y98.336 E11.50328
G1 X103.079 Y96.484 E11.58727
G1 X105.303 Y93.919 E11.70019
G1 X105.695 Y93.45 E11.72052
G0 F6000 X106.002 Y93.707
G1 F1200 X106.616 Y93.036 E11.75077
G1 X106.738 Y92.914 E11.75651
G1 X107.418 Y92.292 E11.78716
G1 X107.719 Y92.041 E11.80019
G1 X108.462 Y91.477 E11.83122
G1 X108.594 Y91.386 E11.83655
G1 X109.683 Y90.731 E11.87882
G1 X110.101 Y90.514 E11.89448
G1 X111.296 Y89.988 E11.93791
G1 X111.531 Y89.902 E11.94623
G1 X112.006 Y89.741 E11.96291
G1 X112.276 Y89.657 E11.97232
G1 X113.513 Y89.356 E12.01466
G1 X113.737 Y89.316 E12.02223
G1 X114.152 Y89.251 E12.0362
G1 X114.372 Y89.221 E12.04359
G1 X115.312 Y89.136 E12.07498
G1 X115.87 Y89.112 E12.09356
G1 X116.206 Y89.104 E12.10473
G1 X116.608 Y89.1 E12.11811
G1 X118.392 Y89.1 E12.17744
G1 X118.794 Y89.104 E12.19081
G1 X119.131 Y89.112 E12.20202
G1 X119.688 Y89.136 E12.22057
G1 X120.621 Y89.22 E12.25172
G1 X120.842 Y89.25 E12.25914
G1 X121.212 Y89.307 E12.27159
G1 X121.437 Y89.346 E12.27919
G1 X122.319 Y89.539 E12.30922
G1 X122.768 Y89.67 E12.32478
G1 X123.037 Y89.755 E12.33416
G1 X123.423 Y89.886 E12.34772
G1 X123.656 Y89.97 E12.35595
G1 X124.492 Y90.313 E12.38601
G1 X124.922 Y90.525 E12.40195
G1 X125.341 Y90.744 E12.41768
G1 X126.378 Y91.367 E12.45792
G1 X126.508 Y91.456 E12.46316
G1 X127.268 Y92.031 E12.49485
G1 X127.571 Y92.283 E12.50796
G1 X128.261 Y92.913 E12.53904
G1 X128.383 Y93.035 E12.54478
G1 X129.002 Y93.712 E12.57529
G1 X129.403 Y94.193 E12.59611
G1 X131.112 Y96.18 E12.68328
G1 X132.808 Y98.041 E12.76703
G1 X134.578 Y99.877 E12.85185
G1 X136.413 Y101.675 E12.9373
G1 X138.267 Y103.392 E13.02134
G1 X140.814 Y105.601 E13.13348
G1 X141.293 Y106.002 E13.15426
G1 X141.964 Y106.616 E13.18451
G1 X142.086 Y106.738 E13.19025
G1 X142.708 Y107.418 E13.2209
G1 X142.959 Y107.719 E13.23393
G1 X143.554 Y108.507 E13.26677
G1 X143.646 Y108.642 E13.27221
G1 X144.262 Y109.672 E13.31213
G1 X144.496 Y110.121 E13.32897
G1 X145.022 Y111.309 E13.37218
G1 X145.071 Y111.442 E13.37689
G1 X145.232 Y111.915 E13.39351
G1 X145.333 Y112.237 E13.40474
G1 X145.648 Y113.532 E13.44906
G1 X145.69 Y113.772 E13.45717
G1 X145.748 Y114.139 E13.46952
G1 X145.778 Y114.357 E13.47684
G1 X145.864 Y115.311 E13.5087
G1 X145.888 Y115.871 E13.52735
G1 X145.896 Y116.196 E13.53816
G1 X145.9 Y116.581 E13.55096
G1 X145.899 Y118.49 E13.61446
G1 X145.896 Y118.79 E13.62444
G1 X145.888 Y119.124 E13.63555
G1 X145.864 Y119.685 E13.65422
G1 X145.78 Y120.621 E13.68548
G1 X145.75 Y120.842 E13.6929
G1 X145.697 Y121.191 E13.70464
G1 X145.659 Y121.413 E13.71213
G1 X145.467 Y122.295 E13.74215
G1 X145.334 Y122.757 E13.75814
G1 X145.248 Y123.03 E13.76766
G1 X145.11 Y123.437 E13.78196
G1 X145.026 Y123.669 E13.79016
