;FLAVOR:Marlin
;TIME:29403
;Filament used: 26.1603m
;Layer height: 0.2
;MINX:22.7
;MINY:91.399
;MINZ:0.2
;MAXX:213.046
;MAXY:143.6
;MAXZ:40
;Generated with Cura_SteamEngine 4.9.1
M140 S50
M105
M190 S50
M104 S200
M105
M109 S200
M82 ;absolute extrusion mode
; Ender 3 Custom Start G-code
G92 E0 ; Reset Extruder
G28 ; Home all axes
G1 Z2.0 F3000 ; Move Z Axis up little to prevent scratching of Heat Bed
G1 X0.1 Y20 Z0.3 F5000.0 ; Move to start position
G1 X0.1 Y200.0 Z0.3 F1500.0 E15 ; Draw the first line
G1 X0.4 Y200.0 Z0.3 F5000.0 ; Move to side a little
G1 X0.4 Y20 Z0.3 F1500.0 E30 ; Draw the second line
G92 E0 ; Reset Extruder
G1 Z2.0 F3000 ; Move Z Axis up little to prevent scratching of Heat Bed
G1 X5 Y20 Z0.3 F5000.0 ; Move over to prevent blob squish
G92 E0
G92 E0
G1 F2700 E-5
;LAYER_COUNT:200
;LAYER:0
M107
G0 F6000 X36.637 Y92.235 Z0.2
;TYPE:SKIRT
G1 F2700 E0
G1 F1200 X37.527 Y91.939 E0.0312
G1 X38.439 Y91.721 E0.06238
G1 X39.59 Y91.559 E0.10104
G1 X40.496 Y91.48 E0.13129
G1 X40.918 Y91.451 E0.14536
G1 X41.453 Y91.425 E0.16318
G1 X41.863 Y91.413 E0.17682
G1 X43.051 Y91.4 E0.21633
G1 X158.325 Y91.399 E4.05036
G1 X159.186 Y91.41 E4.079
G1 X160.122 Y91.463 E4.11018
G1 X161.051 Y91.596 E4.1414
G1 X161.965 Y91.808 E4.1726
G1 X162.857 Y92.096 E4.20378
G1 X163.684 Y92.442 E4.2336
G1 X164.148 Y92.66 E4.25065
G1 X165.885 Y93.506 E4.31491
G1 X168.164 Y94.536 E4.39809
G1 X170.544 Y95.533 E4.48391
G1 X172.812 Y96.406 E4.56474
G1 X175.223 Y97.258 E4.64979
G1 X177.623 Y98.03 E4.73365
G1 X180.019 Y98.728 E4.81665
G1 X182.477 Y99.369 E4.90114
G1 X184.957 Y99.942 E4.9858
G1 X187.377 Y100.427 E5.06789
G1 X189.857 Y100.853 E5.15158
G1 X192.346 Y101.207 E5.2352
G1 X195.019 Y101.511 E5.32467
G1 X195.533 Y101.562 E5.34185
G1 X196.462 Y101.694 E5.37306
G1 X197.376 Y101.904 E5.40425
G1 X198.269 Y102.192 E5.43546
G1 X199.133 Y102.554 E5.46662
G1 X199.964 Y102.989 E5.49782
G1 X200.755 Y103.493 E5.52901
G1 X201.5 Y104.063 E5.56021
G1 X202.194 Y104.694 E5.59141
G1 X202.832 Y105.382 E5.62262
G1 X203.408 Y106.122 E5.65381
G1 X203.92 Y106.908 E5.685
G1 X204.363 Y107.734 E5.71618
G1 X204.733 Y108.596 E5.74738
G1 X205.029 Y109.486 E5.77857
G1 X205.248 Y110.398 E5.80977
G1 X205.389 Y111.325 E5.84096
G1 X205.449 Y112.202 E5.87019
G1 X205.458 Y112.524 E5.88091
G1 X205.462 Y112.83 E5.89109
G1 X205.462 Y131.934 E6.52649
G1 X205.453 Y132.626 E6.54951
G1 X205.401 Y133.562 E6.58069
G1 X205.269 Y134.491 E6.6119
G1 X205.059 Y135.405 E6.64309
G1 X204.771 Y136.298 E6.67429
G1 X204.409 Y137.163 E6.70548
G1 X203.974 Y137.994 E6.73668
G1 X203.47 Y138.785 E6.76787
G1 X202.9 Y139.53 E6.79907
G1 X202.27 Y140.224 E6.83025
G1 X201.582 Y140.861 E6.86143
G1 X200.842 Y141.438 E6.89264
G1 X200.056 Y141.95 E6.92384
G1 X199.229 Y142.392 E6.95503
G1 X198.368 Y142.763 E6.98621
G1 X197.478 Y143.059 E7.01741
G1 X196.566 Y143.278 E7.04861
G1 X195.41 Y143.441 E7.08743
G1 X194.504 Y143.52 E7.11768
G1 X194.082 Y143.549 E7.13175
G1 X193.547 Y143.575 E7.14957
G1 X193.137 Y143.587 E7.16321
G1 X191.949 Y143.6 E7.20272
G1 X81.519 Y143.6 E10.87564
G1 X80.813 Y143.59 E10.89913
G1 X79.877 Y143.537 E10.93031
G1 X78.948 Y143.404 E10.96152
G1 X78.035 Y143.192 E10.9927
G1 X77.142 Y142.904 E11.0239
G1 X76.307 Y142.554 E11.05402
G1 X75.16 Y142.016 E11.09615
G1 X74.883 Y141.881 E11.1064
G1 X72.562 Y140.83 E11.19115
G1 X70.282 Y139.875 E11.27336
G1 X67.905 Y138.957 E11.35811
G1 X65.557 Y138.126 E11.44095
G1 X63.141 Y137.347 E11.52538
G1 X60.727 Y136.643 E11.60902
G1 X58.296 Y136.009 E11.69258
G1 X55.843 Y135.442 E11.77632
G1 X53.365 Y134.941 E11.8604
G1 X50.896 Y134.517 E11.94372
G1 X48.407 Y134.161 E12.02735
G1 X45.917 Y133.877 E12.11071
G1 X43.384 Y133.659 E12.19527
G1 X40.705 Y133.506 E12.28451
G1 X40.085 Y133.48 E12.30515
G1 X39.151 Y133.401 E12.33633
G1 X38.226 Y133.242 E12.36755
G1 X37.319 Y133.006 E12.39872
G1 X36.435 Y132.692 E12.42992
G1 X35.581 Y132.305 E12.4611
G1 X34.763 Y131.846 E12.4923
G1 X33.987 Y131.32 E12.52348
G1 X33.258 Y130.729 E12.5547
G1 X32.583 Y130.078 E12.58589
G1 X31.966 Y129.372 E12.61707
G1 X31.411 Y128.616 E12.64826
G1 X30.922 Y127.815 E12.67948
G1 X30.503 Y126.976 E12.71067
G1 X30.158 Y126.104 E12.74186
G1 X29.888 Y125.206 E12.77305
G1 X29.695 Y124.288 E12.80425
G1 X29.581 Y123.357 E12.83545
G1 X29.551 Y122.788 E12.8544
G1 X29.542 Y122.456 E12.86544
G1 X29.538 Y122.159 E12.87532
G1 X29.538 Y103.038 E13.51129
G1 X29.547 Y102.369 E13.53354
G1 X29.6 Y101.433 E13.56472
G1 X29.732 Y100.504 E13.59593
G1 X29.943 Y99.59 E13.62713
G1 X30.23 Y98.698 E13.6583
G1 X30.593 Y97.833 E13.6895
G1 X31.028 Y97.002 E13.7207
G1 X31.533 Y96.211 E13.75191
G1 X32.103 Y95.466 E13.78311
G1 X32.734 Y94.773 E13.81428
G1 X33.422 Y94.136 E13.84547
G1 X34.162 Y93.559 E13.87668
G1 X34.948 Y93.048 E13.90786
G1 X35.775 Y92.605 E13.93906
G1 X36.637 Y92.235 E13.97026
G0 F6000 X37.001 Y92.527
G1 F1200 X37.881 Y92.257 E14.00088
G1 X38.781 Y92.065 E14.03148
G1 X39.625 Y91.957 E14.05978
G1 X40.531 Y91.878 E14.09003
G1 X40.937 Y91.85 E14.10357
G1 X41.472 Y91.824 E14.12138
G1 X41.867 Y91.813 E14.13453
G1 X43.051 Y91.8 E14.17391
G1 X158.325 Y91.799 E18.00794
G1 X159.18 Y91.81 E18.03638
G1 X160.099 Y91.863 E18.06699
G1 X161.011 Y91.996 E18.09765
G1 X161.907 Y92.207 E18.12826
G1 X162.781 Y92.495 E18.15887
G1 X163.514 Y92.804 E18.18533
G1 X163.972 Y93.02 E18.20217
G1 X165.71 Y93.866 E18.26646
G1 X167.993 Y94.898 E18.34979
G1 X170.382 Y95.899 E18.43594
G1 X172.715 Y96.797 E18.51909
G1 X175.072 Y97.63 E18.60224
G1 X177.484 Y98.406 E18.68651
G1 X179.921 Y99.116 E18.77093
G1 X182.391 Y99.76 E18.85583
G1 X184.86 Y100.33 E18.94011
G1 X187.302 Y100.82 E19.02295
G1 X189.799 Y101.248 E19.10721
G1 X192.316 Y101.607 E19.19178
G1 X194.935 Y101.905 E19.27945
G1 X195.494 Y101.96 E19.29813
G1 X196.405 Y102.09 E19.32874
G1 X197.302 Y102.299 E19.35937
G1 X198.177 Y102.585 E19.38999
G1 X199.024 Y102.945 E19.4206
G1 X199.837 Y103.378 E19.45123
G1 X200.609 Y103.88 E19.48186
G1 X201.335 Y104.446 E19.51248
G1 X202.008 Y105.074 E19.5431
G1 X202.625 Y105.758 E19.57373
G1 X203.18 Y106.492 E19.60434
G1 X203.669 Y107.272 E19.63496
G1 X204.089 Y108.092 E19.6656
G1 X204.436 Y108.944 E19.6962
G1 X204.707 Y109.824 E19.72683
G1 X204.902 Y110.724 E19.75745
G1 X205.017 Y111.637 E19.78806
G1 X205.049 Y112.213 E19.80725
G1 X205.058 Y112.535 E19.81796
G1 X205.062 Y112.83 E19.82777
G1 X205.062 Y131.929 E20.46301
G1 X205.053 Y132.621 E20.48603
G1 X205.001 Y133.54 E20.51664
G1 X204.87 Y134.451 E20.54725
G1 X204.66 Y135.348 E20.5779
G1 X204.373 Y136.222 E20.60849
G1 X204.011 Y137.069 E20.63913
G1 X203.577 Y137.881 E20.66975
G1 X203.074 Y138.652 E20.70037
G1 X202.506 Y139.377 E20.731
G1 X201.877 Y140.049 E20.76162
G1 X201.193 Y140.665 E20.79223
G1 X200.458 Y141.219 E20.82285
G1 X199.677 Y141.707 E20.85348
G1 X198.857 Y142.125 E20.88409
G1 X198.003 Y142.471 E20.91473
G1 X197.123 Y142.741 E20.94535
G1 X196.223 Y142.934 E20.97596
G1 X195.375 Y143.043 E21.0044
G1 X194.469 Y143.122 E21.03465
G1 X194.063 Y143.15 E21.04819
G1 X193.528 Y143.176 E21.066
G1 X193.133 Y143.187 E21.07914
G1 X191.949 Y143.2 E21.11853
G1 X81.525 Y143.2 E24.79124
G1 X80.819 Y143.19 E24.81473
G1 X79.9 Y143.137 E24.84534
G1 X78.989 Y143.004 E24.87596
G1 X78.093 Y142.793 E24.90658
G1 X77.218 Y142.505 E24.93722
G1 X76.476 Y142.192 E24.964
G1 X75.493 Y141.732 E25.0001
G1 X75.045 Y141.514 E25.01667
G1 X72.762 Y140.482 E25.1
G1 X70.414 Y139.497 E25.18469
G1 X68.046 Y138.583 E25.26911
G1 X65.665 Y137.74 E25.35312
G1 X63.271 Y136.969 E25.43678
G1 X60.835 Y136.258 E25.52118
G1 X58.382 Y135.618 E25.6055
G1 X55.94 Y135.053 E25.68886
G1 X53.413 Y134.543 E25.77461
G1 X50.983 Y134.126 E25.85661
G1 X48.472 Y133.766 E25.94098
G1 X45.925 Y133.475 E26.02625
G1 X43.442 Y133.262 E26.10913
G1 X40.74 Y133.108 E26.19915
G1 X40.102 Y133.081 E26.22039
G1 X39.185 Y133.002 E26.251
G1 X38.278 Y132.844 E26.28162
G1 X37.388 Y132.608 E26.31225
G1 X36.522 Y132.296 E26.34286
G1 X35.686 Y131.91 E26.37349
G1 X34.887 Y131.452 E26.40412
G1 X34.131 Y130.927 E26.43473
G1 X33.423 Y130.339 E26.46534
G1 X32.769 Y129.691 E26.49596
G1 X32.173 Y128.989 E26.52659
G1 X31.641 Y128.238 E26.5572
G1 X31.176 Y127.443 E26.58784
G1 X30.781 Y126.611 E26.61847
G1 X30.46 Y125.749 E26.64906
G1 X30.216 Y124.861 E26.67969
G1 X30.049 Y123.956 E26.7103
G1 X29.951 Y122.777 E26.74965
G1 X29.942 Y122.445 E26.7607
G1 X29.938 Y122.159 E26.77021
G1 X29.938 Y103.043 E27.40601
G1 X29.947 Y102.374 E27.42826
G1 X29.999 Y101.455 E27.45888
G1 X30.131 Y100.544 E27.48949
G1 X30.342 Y99.648 E27.52011
G1 X30.629 Y98.773 E27.55074
G1 X30.991 Y97.927 E27.58134
G1 X31.426 Y97.115 E27.61198
G1 X31.929 Y96.344 E27.6426
G1 X32.497 Y95.62 E27.67321
G1 X33.126 Y94.947 E27.70385
G1 X33.811 Y94.332 E27.73446
G1 X34.546 Y93.778 E27.76508
G1 X35.327 Y93.291 E27.79569
G1 X36.148 Y92.873 E27.82633
G1 X37.001 Y92.527 E27.85695
G0 F6000 X36.518 Y93.146
G1 F1200 X37.363 Y92.826 E27.887
G1 X38.232 Y92.583 E27.91701
G1 X39.12 Y92.417 E27.94706
G1 X39.66 Y92.356 E27.96513
G1 X40.566 Y92.277 E27.99538
G1 X40.957 Y92.25 E28.00842
G1 X41.492 Y92.224 E28.02623
G1 X41.872 Y92.213 E28.03888
G1 X43.051 Y92.2 E28.07809
G1 X158.325 Y92.199 E31.91212
G1 X159.175 Y92.21 E31.94039
G1 X160.076 Y92.263 E31.97041
G1 X160.97 Y92.395 E32.00047
G1 X161.848 Y92.606 E32.0305
G1 X162.704 Y92.894 E32.06054
G1 X163.345 Y93.167 E32.08372
G1 X163.797 Y93.379 E32.10032
G1 X165.549 Y94.232 E32.16513
G1 X167.853 Y95.273 E32.24922
G1 X170.209 Y96.261 E32.33419
G1 X172.587 Y97.176 E32.41894
G1 X174.954 Y98.012 E32.50243
G1 X177.365 Y98.788 E32.58667
G1 X179.813 Y99.501 E32.67148
G1 X182.305 Y100.151 E32.75714
G1 X184.757 Y100.717 E32.84083
G1 X187.228 Y101.212 E32.92465
G1 X189.752 Y101.646 E33.00983
G1 X192.246 Y102.001 E33.09362
G1 X194.917 Y102.305 E33.18303
G1 X195.455 Y102.358 E33.20101
G1 X196.349 Y102.487 E33.23106
G1 X197.228 Y102.694 E33.26109
G1 X198.085 Y102.978 E33.29112
G1 X198.914 Y103.336 E33.32115
G1 X199.708 Y103.767 E33.3512
G1 X200.46 Y104.266 E33.38122
G1 X201.166 Y104.829 E33.41125
G1 X201.819 Y105.453 E33.44129
G1 X202.414 Y106.133 E33.47135
G1 X202.947 Y106.862 E33.50138
G1 X203.413 Y107.635 E33.5314
G1 X203.809 Y108.447 E33.56145
G1 X204.132 Y109.29 E33.59148
G1 X204.379 Y110.159 E33.62152
G1 X204.548 Y111.046 E33.65156
G1 X204.649 Y112.224 E33.69088
G1 X204.658 Y112.546 E33.70159
G1 X204.662 Y112.83 E33.71104
G1 X204.662 Y131.924 E34.34611
G1 X204.653 Y132.616 E34.36913
G1 X204.601 Y133.517 E34.39915
G1 X204.47 Y134.411 E34.4292
G1 X204.26 Y135.289 E34.45922
G1 X203.974 Y136.146 E34.48927
G1 X203.612 Y136.973 E34.5193
G1 X203.179 Y137.766 E34.54935
G1 X202.678 Y138.517 E34.57938
G1 X202.112 Y139.221 E34.60942
G1 X201.486 Y139.872 E34.63946
G1 X200.805 Y140.465 E34.66949
G1 X200.074 Y140.995 E34.69952
G1 X199.299 Y141.459 E34.72957
G1 X198.486 Y141.852 E34.7596
G1 X197.642 Y142.172 E34.78962
G1 X196.772 Y142.416 E34.81968
G1 X195.884 Y142.582 E34.84972
G1 X195.34 Y142.644 E34.86793
G1 X194.434 Y142.723 E34.89818
G1 X194.043 Y142.75 E34.91122
G1 X193.508 Y142.776 E34.92903
G1 X193.128 Y142.787 E34.94168
G1 X191.949 Y142.8 E34.98089
G1 X81.531 Y142.8 E38.65341
G1 X80.825 Y142.79 E38.67689
G1 X79.923 Y142.737 E38.70695
G1 X79.03 Y142.605 E38.73697
G1 X78.151 Y142.394 E38.76704
G1 X77.295 Y142.106 E38.79708
G1 X76.646 Y141.83 E38.82053
G1 X75.663 Y141.37 E38.85663
G1 X75.22 Y141.155 E38.87301
G1 X72.916 Y140.112 E38.95713
G1 X70.564 Y139.126 E39.04195
G1 X68.176 Y138.204 E39.12709
G1 X65.785 Y137.358 E39.21144
G1 X63.401 Y136.59 E39.29475
G1 X60.942 Y135.872 E39.37995
G1 X58.501 Y135.236 E39.46385
G1 X55.997 Y134.657 E39.54933
G1 X53.495 Y134.151 E39.63423
G1 X51.036 Y133.729 E39.71721
G1 X48.507 Y133.367 E39.80219
G1 X46.004 Y133.081 E39.88598
G1 X43.428 Y132.86 E39.97197
G1 X40.78 Y132.709 E40.06019
G1 X40.119 Y132.681 E40.08219
G1 X39.219 Y132.603 E40.11224
G1 X38.33 Y132.446 E40.14226
G1 X37.458 Y132.211 E40.1723
G1 X36.61 Y131.9 E40.20234
G1 X35.793 Y131.514 E40.2324
G1 X35.014 Y131.059 E40.2624
G1 X34.277 Y130.536 E40.29246
G1 X33.59 Y129.949 E40.32252
G1 X32.958 Y129.305 E40.35253
G1 X32.385 Y128.607 E40.38256
G1 X31.876 Y127.861 E40.4126
G1 X31.435 Y127.073 E40.44263
G1 X31.065 Y126.249 E40.47268
G1 X30.77 Y125.395 E40.50273
G1 X30.551 Y124.519 E40.53276
G1 X30.411 Y123.627 E40.56279
G1 X30.351 Y122.766 E40.5915
G1 X30.342 Y122.434 E40.60254
G1 X30.338 Y122.159 E40.61169
G1 X30.338 Y103.049 E41.24729
G1 X30.347 Y102.38 E41.26955
G1 X30.399 Y101.478 E41.2996
G1 X30.531 Y100.585 E41.32962
G1 X30.741 Y99.706 E41.35968
G1 X31.028 Y98.85 E41.38971
G1 X31.39 Y98.023 E41.41973
G1 X31.823 Y97.23 E41.44978
G1 X32.325 Y96.479 E41.47983
G1 X32.891 Y95.776 E41.50985
G1 X33.517 Y95.125 E41.53989
G1 X34.199 Y94.533 E41.56992
G1 X34.93 Y94.002 E41.59997
G1 X35.705 Y93.539 E41.63
G1 X36.518 Y93.146 E41.66003
G1 F2700 E36.66003
;MESH:antebra??o.stl
G0 F6000 X42.486 Y101.736
G0 X42.509 Y102.82
G0 X41.318 Y103.223
G0 X41.32 Y121.718
G0 X67.538 Y121.712
G0 X81.167 Y132.001
;TYPE:WALL-INNER
G1 F2700 E41.66003
G1 F1200 X67.7 Y121.9 E42.21994
G1 X41.138 Y121.9 E43.1034
G1 X41.137 Y103.053 E43.73025
G1 X41.656 Y103.019 E43.74755
G1 X42.513 Y103 E43.77606
G1 X158.833 Y102.999 E47.64488
G1 X172.3 Y113.1 E48.20479
G1 X193.862 Y113.1 E48.92194
G1 X193.863 Y131.947 E49.5488
G1 X193.344 Y131.981 E49.5661
G1 X192.487 Y132 E49.59461
G1 X81.167 Y132.001 E53.29713
G0 F6000 X81.034 Y132.401
;TYPE:WALL-OUTER
G1 F1200 X67.567 Y122.3 E53.85703
G1 X40.738 Y122.3 E54.74937
G1 X40.737 Y102.68 E55.40193
G1 X40.772 Y102.676 E55.4031
G1 X41.644 Y102.619 E55.43217
G1 X42.504 Y102.6 E55.46078
G1 X158.966 Y102.599 E59.33432
G1 X172.433 Y112.7 E59.89423
G1 X194.262 Y112.7 E60.62027
G1 X194.263 Y132.32 E61.27283
G1 X194.228 Y132.324 E61.274
G1 X193.356 Y132.381 E61.30307
G1 X192.496 Y132.4 E61.33168
G1 X81.034 Y132.401 E65.03892
G0 F6000 X81.173 Y131.984
G0 X81.297 Y131.611
;TYPE:SKIN
G1 F1200 X67.83 Y121.51 E65.59882
G1 X41.528 Y121.51 E66.47363
G1 X41.527 Y103.419 E67.07534
G1 X41.682 Y103.409 E67.08051
G1 X42.521 Y103.39 E67.10842
G1 X158.703 Y103.389 E70.97265
G1 X172.17 Y113.49 E71.53256
G1 X193.472 Y113.49 E72.24106
G1 X193.473 Y131.581 E72.84277
G1 X193.318 Y131.591 E72.84794
G1 X192.479 Y131.61 E72.87585
G1 X81.297 Y131.611 E76.57378
G1 F2700 E71.57378
G0 F6000 X81.128 Y131.833
G0 X67.646 Y122.063
G0 X42.153 Y121.79
G0 X42.153 Y121.349
G1 F2700 E76.57378
G1 F1200 X41.687 Y120.883 E76.5957
G0 F6000 X41.687 Y120.317
G1 F1200 X42.719 Y121.349 E76.64424
G0 F6000 X43.284 Y121.349
G1 F1200 X41.687 Y119.752 E76.71936
G0 F6000 X41.687 Y119.186
G1 F1200 X43.85 Y121.349 E76.8211
G0 F6000 X44.416 Y121.349
G1 F1200 X41.687 Y118.62 E76.94946
G0 F6000 X41.687 Y118.055
G1 F1200 X44.981 Y121.349 E77.1044
G0 F6000 X45.547 Y121.349
G1 F1200 X41.687 Y117.489 E77.28597
G0 F6000 X41.687 Y116.923
G1 F1200 X46.113 Y121.349 E77.49415
G0 F6000 X46.678 Y121.349
G1 F1200 X41.687 Y116.357 E77.72894
G0 F6000 X41.687 Y115.792
G1 F1200 X47.244 Y121.349 E77.99032
G0 F6000 X47.81 Y121.349
G1 F1200 X41.687 Y115.226 E78.27833
G0 F6000 X41.687 Y114.66
G1 F1200 X48.376 Y121.349 E78.59296
G0 F6000 X48.941 Y121.349
G1 F1200 X41.687 Y114.095 E78.93416
G0 F6000 X41.687 Y113.529
G1 F1200 X49.507 Y121.349 E79.30199
G0 F6000 X50.073 Y121.349
G1 F1200 X41.687 Y112.963 E79.69645
G0 F6000 X41.686 Y112.397
G1 F1200 X50.638 Y121.349 E80.11752
G0 F6000 X51.204 Y121.349
G1 F1200 X41.686 Y111.831 E80.56522
G0 F6000 X41.686 Y111.266
G1 F1200 X51.77 Y121.349 E81.03951
G0 F6000 X52.335 Y121.349
G1 F1200 X41.686 Y110.7 E81.54041
G0 F6000 X41.686 Y110.134
G1 F1200 X52.901 Y121.349 E82.06793
G0 F6000 X53.467 Y121.349
